icons/ArrowCornerLeftDown_filled.svg

<svg width="24" height="24" viewBox="0 0 24 24" fill="none" xmlns="http://www.w3.org/2000/svg">
<path fill-rule="evenodd" clip-rule="evenodd" d="M8.88388,19.8839c-0.48815,0.4882 -1.27961,0.4882 -1.76776,0l-4,-4c-0.48816,-0.4881 -0.48816,-1.2796 0,-1.7677c0.48815,-0.4882 1.27961,-0.4882 1.76776,0l1.86612,1.8661v-8.48226c0,-1.79493 1.45508,-3.25 3.25,-3.25h11c0.6904,0 1.25,0.55964 1.25,1.25c0,0.69036 -0.5596,1.25 -1.25,1.25h-11c-0.41421,0 -0.75,0.33579 -0.75,0.75v8.48226l1.8661,-1.8661c0.4882,-0.4882 1.2796,-0.4882 1.7678,0c0.4881,0.4881 0.4881,1.2796 0,1.7677z" fill="#002B51"/>
</svg>

<svg width="24" height="24" viewBox="0 0 24 24" fill="none" xmlns="http://www.w3.org/2000/svg">
<path fill-rule="evenodd" clip-rule="evenodd" d="M8.88388 19.8839C8.39573 20.3721 7.60427 20.3721 7.11612 19.8839L3.11612 15.8839C2.62796 15.3958 2.62796 14.6043 3.11612 14.1162C3.60427 13.628 4.39573 13.628 4.88388 14.1162L6.75 15.9823L6.75 7.50004C6.75 5.70511 8.20508 4.25004 10 4.25004L21 4.25004C21.6904 4.25004 22.25 4.80968 22.25 5.50004C22.25 6.1904 21.6904 6.75004 21 6.75004L10 6.75004C9.58579 6.75004 9.25 7.08583 9.25 7.50004L9.25 15.9823L11.1161 14.1162C11.6043 13.628 12.3957 13.628 12.8839 14.1162C13.372 14.6043 13.372 15.3958 12.8839 15.8839L8.88388 19.8839Z" fill="#002B51"/>
</svg>
